X: 170
M:C
L:1/8
K:F
{c}(d>c) {c}(f>A) {A}(G2 F) || !f!c2 | {c}d>c {c}f>c d>c A<c | d>c .A.F .G.F (D<F) |
(C2 DE) F>G A>G (A<c) | {c}d>c{c}f>A {A}G2 G>c | {c}(d>c){c}(f>c) d>.c .A<.c |
d>c A.F {D}G.F HD._D | (C>F) (_D>F) C(D/E/ F)(G/A/ | ~B)(c/d/ c)B/A/ {A}.G2 .F |]


